src/img/settings.svg

<svg fill="none" height="16" viewBox="0 0 16 16" width="16" xmlns="http://www.w3.org/2000/svg" xmlns:xlink="http://www.w3.org/1999/xlink"><mask id="a" height="16" maskUnits="userSpaceOnUse" width="16" x="0" y="0"><path clip-rule="evenodd" d="m13.5333 10.2667c.0667-.1334.2-.2667.4667-.2667 1.1333 0 2-.86667 2-2s-.8667-2-2-2h-.1333c-.1334 0-.2667-.06667-.3334-.2 0-.06667 0-.06667-.0666-.13333-.0667-.13334-.0667-.33334.1333-.53334.8-.8.8-2.06666 0-2.8-.4-.4-.8667-.6-1.4-.6s-1.0667.2-1.4667.6c-.1333.13334-.3333.13334-.4666.06667-.1334 0-.2667-.2-.2667-.4 0-1.133333-.86667-2-2-2s-2 .866667-2 2v.13333c0 .13334-.06667.26667-.2.33334-.02833 0-.04462 0-.05911.00511-.0196.00693-.03589.02322-.07422.06155-.13334.06667-.33334 0-.53334-.13333-.8-.8-2.06666-.8-2.8 0-.8.8-.8 2.06667.06667 2.86667.13333.13333.13333.33333.06667.53333-.06667.13333-.26667.26667-.46667.26667-1.133333 0-2 .86666-2 2 0 1.13333.866667 2.00003 2 2.00003h.13333c.2 0 .33334.1333.4.2666.06667.1334.06667.3334-.13333.5334-.4.4-.6.8666-.6 1.4 0 .5333.2 1 .6 1.4.8.8 2.06667.8 2.86667-.0667.13333-.1333.33333-.1333.53333-.0667.2.0667.26667.2.26667.4667 0 1.1333.86666 2 2 2 1.13333 0 2.00003-.8667 2.00003-2v-.1333c0-.2.1333-.3334.2666-.4.1334-.0667.3334-.0667.5334.1333.8.8 2.0666.8 2.8 0 .8-.8.8-2.0667-.0667-2.8667-.0667-.1333-.1333-.3333-.0667-.4666zm-8.19997-2.2667c0-1.46667 1.2-2.66667 2.66667-2.66667s2.6667 1.2 2.6667 2.66667-1.20003 2.6667-2.6667 2.6667-2.66667-1.20003-2.66667-2.6667zm1.33334 0c0 .73333.6 1.33333 1.33333 1.33333s1.33333-.6 1.33333-1.33333-.6-1.33333-1.33333-1.33333-1.33333.6-1.33333 1.33333zm6.06663 3.7333c-.5333-.6-.6666-1.3333-.4-1.99997.2667-.66666.9334-1.06666 1.6-1.06666.4667 0 .7334-.26667.7334-.66667s-.2667-.66667-.6667-.66667h-.1333c-.6667 0-1.3334-.4-1.6-1.06666-.0667-.06667-.0667-.13334-.0667-.2-.2-.6-.0667-1.33334.4-1.8.3333-.33334.3333-.73334.0667-1-.1334-.13334-.2667-.2-.4667-.2s-.3333.06666-.4667.2c-.6.53333-1.3333.66666-1.99997.4-.66666-.26667-1.06666-.86667-1.06666-1.6 0-.46667-.26667-.73334-.66667-.73334s-.66667.26667-.66667.66667v.13333c0 .66667-.4 1.33334-1.06666 1.6-.06667.06667-.13334.06667-.2.06667-.6.2-1.33334.06667-1.8-.4-.33334-.33333-.73334-.33333-1-.06667-.26667.26667-.26667.66667 0 .93334.53333.6.66666 1.33333.4 2-.26667.66666-.86667 1.13333-1.6 1.13333h-.06667c-.4 0-.66667.26667-.66667.66667s.26667.66666.66667.66666h.13333c.66667 0 1.33334.4 1.6 1.06667.33334.6667.2 1.4-.33333 1.9333-.2.2-.26667.3334-.26667.5334s.06667.3333.2.4666c.26667.2667.66667.2667.93334 0 .33333-.3333.8-.5333 1.26666-.5333.26667 0 .53334 0 .73334.1333.66666.2667 1.13333.8667 1.13333 1.6v.0667c0 .4.26667.6667.66667.6667s.66666-.2667.66666-.6667v-.1333c0-.6667.4-1.3334 1.06667-1.6.6667-.3334 1.4-.2 1.9333.3333.2.2.3334.2667.5334.2667s.3333-.0667.4666-.2c.1334-.1334.2-.2667.2-.4667s-.0666-.3333-.2-.4667z" fill="#fff" fill-rule="evenodd"/></mask><path clip-rule="evenodd" d="m13.5333 10.2667c.0667-.1334.2-.2667.4667-.2667 1.1333 0 2-.86667 2-2s-.8667-2-2-2h-.1333c-.1334 0-.2667-.06667-.3334-.2 0-.06667 0-.06667-.0666-.13333-.0667-.13334-.0667-.33334.1333-.53334.8-.8.8-2.06666 0-2.8-.4-.4-.8667-.6-1.4-.6s-1.0667.2-1.4667.6c-.1333.13334-.3333.13334-.4666.06667-.1334 0-.2667-.2-.2667-.4 0-1.133333-.86667-2-2-2s-2 .866667-2 2v.13333c0 .13334-.06667.26667-.2.33334-.02833 0-.04462 0-.05911.00511-.0196.00693-.03589.02322-.07422.06155-.13334.06667-.33334 0-.53334-.13333-.8-.8-2.06666-.8-2.8 0-.8.8-.8 2.06667.06667 2.86667.13333.13333.13333.33333.06667.53333-.06667.13333-.26667.26667-.46667.26667-1.133333 0-2 .86666-2 2 0 1.13333.866667 2.00003 2 2.00003h.13333c.2 0 .33334.1333.4.2666.06667.1334.06667.3334-.13333.5334-.4.4-.6.8666-.6 1.4 0 .5333.2 1 .6 1.4.8.8 2.06667.8 2.86667-.0667.13333-.1333.33333-.1333.53333-.0667.2.0667.26667.2.26667.4667 0 1.1333.86666 2 2 2 1.13333 0 2.00003-.8667 2.00003-2v-.1333c0-.2.1333-.3334.2666-.4.1334-.0667.3334-.0667.5334.1333.8.8 2.0666.8 2.8 0 .8-.8.8-2.0667-.0667-2.8667-.0667-.1333-.1333-.3333-.0667-.4666zm-8.19997-2.2667c0-1.46667 1.2-2.66667 2.66667-2.66667s2.6667 1.2 2.6667 2.66667-1.20003 2.6667-2.6667 2.6667-2.66667-1.20003-2.66667-2.6667zm1.33334 0c0 .73333.6 1.33333 1.33333 1.33333s1.33333-.6 1.33333-1.33333-.6-1.33333-1.33333-1.33333-1.33333.6-1.33333 1.33333zm6.06663 3.7333c-.5333-.6-.6666-1.3333-.4-1.99997.2667-.66666.9334-1.06666 1.6-1.06666.4667 0 .7334-.26667.7334-.66667s-.2667-.66667-.6667-.66667h-.1333c-.6667 0-1.3334-.4-1.6-1.06666-.0667-.06667-.0667-.13334-.0667-.2-.2-.6-.0667-1.33334.4-1.8.3333-.33334.3333-.73334.0667-1-.1334-.13334-.2667-.2-.4667-.2s-.3333.06666-.4667.2c-.6.53333-1.3333.66666-1.99997.4-.66666-.26667-1.06666-.86667-1.06666-1.6 0-.46667-.26667-.73334-.66667-.73334s-.66667.26667-.66667.66667v.13333c0 .66667-.4 1.33334-1.06666 1.6-.06667.06667-.13334.06667-.2.06667-.6.2-1.33334.06667-1.8-.4-.33334-.33333-.73334-.33333-1-.06667-.26667.26667-.26667.66667 0 .93334.53333.6.66666 1.33333.4 2-.26667.66666-.86667 1.13333-1.6 1.13333h-.06667c-.4 0-.66667.26667-.66667.66667s.26667.66666.66667.66666h.13333c.66667 0 1.33334.4 1.6 1.06667.33334.6667.2 1.4-.33333 1.9333-.2.2-.26667.3334-.26667.5334s.06667.3333.2.4666c.26667.2667.66667.2667.93334 0 .33333-.3333.8-.5333 1.26666-.5333.26667 0 .53334 0 .73334.1333.66666.2667 1.13333.8667 1.13333 1.6v.0667c0 .4.26667.6667.66667.6667s.66666-.2667.66666-.6667v-.1333c0-.6667.4-1.3334 1.06667-1.6.6667-.3334 1.4-.2 1.9333.3333.2.2.3334.2667.5334.2667s.3333-.0667.4666-.2c.1334-.1334.2-.2667.2-.4667s-.0666-.3333-.2-.4667z" fill="#000" fill-rule="evenodd"/><g mask="url(#a)"><path d="m0 0h16v16h-16z" fill="#97be0e"/></g></svg>

<svg width="16" height="16" viewBox="0 0 16 16" fill="none" xmlns="http://www.w3.org/2000/svg">
<path fill-rule="evenodd" clip-rule="evenodd" d="M13.5333 10.2667C13.6 10.1333 13.7333 10 14 10C15.1333 10 16 9.13333 16 8C16 6.86667 15.1333 6 14 6H13.8667C13.7333 6 13.6 5.93333 13.5333 5.8C13.5333 5.73333 13.5333 5.73333 13.4667 5.66667C13.4 5.53333 13.4 5.33333 13.6 5.13333C14.4 4.33333 14.4 3.06667 13.6 2.33333C13.2 1.93333 12.7333 1.73333 12.2 1.73333C11.6667 1.73333 11.1333 1.93333 10.7333 2.33333C10.6 2.46667 10.4 2.46667 10.2667 2.4C10.1333 2.4 10 2.2 10 2C10 0.866667 9.13333 0 8 0C6.86667 0 6 0.866667 6 2V2.13333C6 2.26667 5.93333 2.4 5.8 2.46667C5.77167 2.46667 5.75538 2.46667 5.74089 2.47178C5.72129 2.47871 5.705 2.495 5.66667 2.53333C5.53333 2.6 5.33333 2.53333 5.13333 2.4C4.33333 1.6 3.06667 1.6 2.33333 2.4C1.53333 3.2 1.53333 4.46667 2.4 5.26667C2.53333 5.4 2.53333 5.6 2.46667 5.8C2.4 5.93333 2.2 6.06667 2 6.06667C0.866667 6.06667 0 6.93333 0 8.06667C0 9.2 0.866667 10.0667 2 10.0667H2.13333C2.33333 10.0667 2.46667 10.2 2.53333 10.3333C2.6 10.4667 2.6 10.6667 2.4 10.8667C2 11.2667 1.8 11.7333 1.8 12.2667C1.8 12.8 2 13.2667 2.4 13.6667C3.2 14.4667 4.46667 14.4667 5.26667 13.6C5.4 13.4667 5.6 13.4667 5.8 13.5333C6 13.6 6.06667 13.7333 6.06667 14C6.06667 15.1333 6.93333 16 8.06667 16C9.2 16 10.0667 15.1333 10.0667 14V13.8667C10.0667 13.6667 10.2 13.5333 10.3333 13.4667C10.4667 13.4 10.6667 13.4 10.8667 13.6C11.6667 14.4 12.9333 14.4 13.6667 13.6C14.4667 12.8 14.4667 11.5333 13.6 10.7333C13.5333 10.6 13.4667 10.4 13.5333 10.2667ZM5.33333 8C5.33333 6.53333 6.53333 5.33333 8 5.33333C9.46667 5.33333 10.6667 6.53333 10.6667 8C10.6667 9.46667 9.46667 10.6667 8 10.6667C6.53333 10.6667 5.33333 9.46667 5.33333 8ZM6.66667 8C6.66667 8.73333 7.26667 9.33333 8 9.33333C8.73333 9.33333 9.33333 8.73333 9.33333 8C9.33333 7.26667 8.73333 6.66667 8 6.66667C7.26667 6.66667 6.66667 7.26667 6.66667 8ZM12.7333 11.7333C12.2 11.1333 12.0667 10.4 12.3333 9.73333C12.6 9.06667 13.2667 8.66667 13.9333 8.66667C14.4 8.66667 14.6667 8.4 14.6667 8C14.6667 7.6 14.4 7.33333 14 7.33333H13.8667C13.2 7.33333 12.5333 6.93333 12.2667 6.26667C12.2 6.2 12.2 6.13333 12.2 6.06667C12 5.46667 12.1333 4.73333 12.6 4.26667C12.9333 3.93333 12.9333 3.53333 12.6667 3.26667C12.5333 3.13333 12.4 3.06667 12.2 3.06667C12 3.06667 11.8667 3.13333 11.7333 3.26667C11.1333 3.8 10.4 3.93333 9.73333 3.66667C9.06667 3.4 8.66667 2.8 8.66667 2.06667C8.66667 1.6 8.4 1.33333 8 1.33333C7.6 1.33333 7.33333 1.6 7.33333 2V2.13333C7.33333 2.8 6.93333 3.46667 6.26667 3.73333C6.2 3.8 6.13333 3.8 6.06667 3.8C5.46667 4 4.73333 3.86667 4.26667 3.4C3.93333 3.06667 3.53333 3.06667 3.26667 3.33333C3 3.6 3 4 3.26667 4.26667C3.8 4.86667 3.93333 5.6 3.66667 6.26667C3.4 6.93333 2.8 7.4 2.06667 7.4H2C1.6 7.4 1.33333 7.66667 1.33333 8.06667C1.33333 8.46667 1.6 8.73333 2 8.73333H2.13333C2.8 8.73333 3.46667 9.13333 3.73333 9.8C4.06667 10.4667 3.93333 11.2 3.4 11.7333C3.2 11.9333 3.13333 12.0667 3.13333 12.2667C3.13333 12.4667 3.2 12.6 3.33333 12.7333C3.6 13 4 13 4.26667 12.7333C4.6 12.4 5.06667 12.2 5.53333 12.2C5.8 12.2 6.06667 12.2 6.26667 12.3333C6.93333 12.6 7.4 13.2 7.4 13.9333V14C7.4 14.4 7.66667 14.6667 8.06667 14.6667C8.46667 14.6667 8.73333 14.4 8.73333 14V13.8667C8.73333 13.2 9.13333 12.5333 9.8 12.2667C10.4667 11.9333 11.2 12.0667 11.7333 12.6C11.9333 12.8 12.0667 12.8667 12.2667 12.8667C12.4667 12.8667 12.6 12.8 12.7333 12.6667C12.8667 12.5333 12.9333 12.4 12.9333 12.2C12.9333 12 12.8667 11.8667 12.7333 11.7333Z" fill="black"/>
<mask id="mask0" mask-type="alpha" maskUnits="userSpaceOnUse" x="0" y="0" width="16" height="16">
<path fill-rule="evenodd" clip-rule="evenodd" d="M13.5333 10.2667C13.6 10.1333 13.7333 10 14 10C15.1333 10 16 9.13333 16 8C16 6.86667 15.1333 6 14 6H13.8667C13.7333 6 13.6 5.93333 13.5333 5.8C13.5333 5.73333 13.5333 5.73333 13.4667 5.66667C13.4 5.53333 13.4 5.33333 13.6 5.13333C14.4 4.33333 14.4 3.06667 13.6 2.33333C13.2 1.93333 12.7333 1.73333 12.2 1.73333C11.6667 1.73333 11.1333 1.93333 10.7333 2.33333C10.6 2.46667 10.4 2.46667 10.2667 2.4C10.1333 2.4 10 2.2 10 2C10 0.866667 9.13333 0 8 0C6.86667 0 6 0.866667 6 2V2.13333C6 2.26667 5.93333 2.4 5.8 2.46667C5.77167 2.46667 5.75538 2.46667 5.74089 2.47178C5.72129 2.47871 5.705 2.495 5.66667 2.53333C5.53333 2.6 5.33333 2.53333 5.13333 2.4C4.33333 1.6 3.06667 1.6 2.33333 2.4C1.53333 3.2 1.53333 4.46667 2.4 5.26667C2.53333 5.4 2.53333 5.6 2.46667 5.8C2.4 5.93333 2.2 6.06667 2 6.06667C0.866667 6.06667 0 6.93333 0 8.06667C0 9.2 0.866667 10.0667 2 10.0667H2.13333C2.33333 10.0667 2.46667 10.2 2.53333 10.3333C2.6 10.4667 2.6 10.6667 2.4 10.8667C2 11.2667 1.8 11.7333 1.8 12.2667C1.8 12.8 2 13.2667 2.4 13.6667C3.2 14.4667 4.46667 14.4667 5.26667 13.6C5.4 13.4667 5.6 13.4667 5.8 13.5333C6 13.6 6.06667 13.7333 6.06667 14C6.06667 15.1333 6.93333 16 8.06667 16C9.2 16 10.0667 15.1333 10.0667 14V13.8667C10.0667 13.6667 10.2 13.5333 10.3333 13.4667C10.4667 13.4 10.6667 13.4 10.8667 13.6C11.6667 14.4 12.9333 14.4 13.6667 13.6C14.4667 12.8 14.4667 11.5333 13.6 10.7333C13.5333 10.6 13.4667 10.4 13.5333 10.2667ZM5.33333 8C5.33333 6.53333 6.53333 5.33333 8 5.33333C9.46667 5.33333 10.6667 6.53333 10.6667 8C10.6667 9.46667 9.46667 10.6667 8 10.6667C6.53333 10.6667 5.33333 9.46667 5.33333 8ZM6.66667 8C6.66667 8.73333 7.26667 9.33333 8 9.33333C8.73333 9.33333 9.33333 8.73333 9.33333 8C9.33333 7.26667 8.73333 6.66667 8 6.66667C7.26667 6.66667 6.66667 7.26667 6.66667 8ZM12.7333 11.7333C12.2 11.1333 12.0667 10.4 12.3333 9.73333C12.6 9.06667 13.2667 8.66667 13.9333 8.66667C14.4 8.66667 14.6667 8.4 14.6667 8C14.6667 7.6 14.4 7.33333 14 7.33333H13.8667C13.2 7.33333 12.5333 6.93333 12.2667 6.26667C12.2 6.2 12.2 6.13333 12.2 6.06667C12 5.46667 12.1333 4.73333 12.6 4.26667C12.9333 3.93333 12.9333 3.53333 12.6667 3.26667C12.5333 3.13333 12.4 3.06667 12.2 3.06667C12 3.06667 11.8667 3.13333 11.7333 3.26667C11.1333 3.8 10.4 3.93333 9.73333 3.66667C9.06667 3.4 8.66667 2.8 8.66667 2.06667C8.66667 1.6 8.4 1.33333 8 1.33333C7.6 1.33333 7.33333 1.6 7.33333 2V2.13333C7.33333 2.8 6.93333 3.46667 6.26667 3.73333C6.2 3.8 6.13333 3.8 6.06667 3.8C5.46667 4 4.73333 3.86667 4.26667 3.4C3.93333 3.06667 3.53333 3.06667 3.26667 3.33333C3 3.6 3 4 3.26667 4.26667C3.8 4.86667 3.93333 5.6 3.66667 6.26667C3.4 6.93333 2.8 7.4 2.06667 7.4H2C1.6 7.4 1.33333 7.66667 1.33333 8.06667C1.33333 8.46667 1.6 8.73333 2 8.73333H2.13333C2.8 8.73333 3.46667 9.13333 3.73333 9.8C4.06667 10.4667 3.93333 11.2 3.4 11.7333C3.2 11.9333 3.13333 12.0667 3.13333 12.2667C3.13333 12.4667 3.2 12.6 3.33333 12.7333C3.6 13 4 13 4.26667 12.7333C4.6 12.4 5.06667 12.2 5.53333 12.2C5.8 12.2 6.06667 12.2 6.26667 12.3333C6.93333 12.6 7.4 13.2 7.4 13.9333V14C7.4 14.4 7.66667 14.6667 8.06667 14.6667C8.46667 14.6667 8.73333 14.4 8.73333 14V13.8667C8.73333 13.2 9.13333 12.5333 9.8 12.2667C10.4667 11.9333 11.2 12.0667 11.7333 12.6C11.9333 12.8 12.0667 12.8667 12.2667 12.8667C12.4667 12.8667 12.6 12.8 12.7333 12.6667C12.8667 12.5333 12.9333 12.4 12.9333 12.2C12.9333 12 12.8667 11.8667 12.7333 11.7333Z" fill="white"/>
</mask>
<g mask="url(#mask0)">
<rect width="16" height="16" fill="#97BE0E"/>
</g>
</svg>
